src/assets/webAppDevelopment.svg

<svg width="178" height="139" viewBox="0 0 178 139" fill="none" xmlns="http://www.w3.org/2000/svg">
<path d="M177.141 2.62695H80.4233V48.3578H177.141V2.62695Z" fill="#E6E6E6"/>
<path d="M174.25 6.57031H83.314V44.9421H174.25V6.57031Z" fill="white"/>
<path d="M177.141 0H80.4233V4.20513H177.141V0Z" fill="#2ECC82"/>
<path d="M83.5765 3.1531C84.012 3.1531 84.365 2.80009 84.365 2.36463C84.365 1.92918 84.012 1.57617 83.5765 1.57617C83.1411 1.57617 82.7881 1.92918 82.7881 2.36463C82.7881 2.80009 83.1411 3.1531 83.5765 3.1531Z" fill="white"/>
<path d="M86.4677 3.1531C86.9031 3.1531 87.2561 2.80009 87.2561 2.36463C87.2561 1.92918 86.9031 1.57617 86.4677 1.57617C86.0322 1.57617 85.6792 1.92918 85.6792 2.36463C85.6792 2.80009 86.0322 3.1531 86.4677 3.1531Z" fill="white"/>
<path d="M89.3588 3.1531C89.7942 3.1531 90.1472 2.80009 90.1472 2.36463C90.1472 1.92918 89.7942 1.57617 89.3588 1.57617C88.9233 1.57617 88.5703 1.92918 88.5703 2.36463C88.5703 2.80009 88.9233 3.1531 89.3588 3.1531Z" fill="white"/>
<path d="M152.962 12.8789H137.718V38.6353H152.962V12.8789Z" fill="#F2F2F2"/>
<path d="M135.352 12.8789H104.865V19.9751H135.352V12.8789Z" fill="#2ECC82"/>
<path d="M135.352 21.8145H104.865V29.4363H135.352V21.8145Z" fill="#F2F2F2"/>
<path d="M135.352 31.541H104.865V38.6372H135.352V31.541Z" fill="#F2F2F2"/>
<path d="M58.1371 74.1423C58.1407 73.4808 58.0046 72.826 57.7376 72.2208C57.4706 71.6155 57.0788 71.0736 56.5877 70.6303C56.0966 70.1871 55.5175 69.8526 54.8882 69.6488C54.2588 69.445 53.5936 69.3765 52.9359 69.4477C52.7278 69.4713 52.5216 69.5093 52.3188 69.5614L36.4276 55.9401L37.3772 50.8216L29.5447 48.2832L27.1831 56.486C26.9038 57.4705 26.9493 58.5188 27.3129 59.4754C27.6765 60.4319 28.3389 61.2458 29.2017 61.7961L48.7506 74.1605C48.7507 74.3142 48.7588 74.4679 48.7747 74.6209C48.846 75.2786 49.0556 75.9138 49.3896 76.4848C49.7236 77.0559 50.1744 77.5499 50.7127 77.9346C51.2509 78.3193 51.8644 78.5859 52.5128 78.7169C53.1613 78.848 53.8301 78.8405 54.4755 78.695C54.6631 78.6535 54.8479 78.6001 55.0288 78.5353C55.9335 78.2082 56.7164 77.6118 57.2721 76.8265C57.8278 76.0411 58.1297 75.1043 58.1371 74.1423V74.1423Z" fill="#9F616A"/>
<path d="M18.6295 89.9395H39.1185C39.1185 90.5284 60.2349 91.0064 60.2349 91.0064C60.5664 91.2559 60.8684 91.5423 61.1353 91.8599C61.9374 92.8165 62.3758 94.0257 62.3731 95.2741V96.1276C62.3726 97.5422 61.8104 98.8988 60.8101 99.8991C59.8098 100.899 58.4532 101.462 57.0386 101.462H18.6295C17.2151 101.461 15.8589 100.899 14.8587 99.8983C13.8586 98.8982 13.2962 97.542 13.2949 96.1276V95.2741C13.2969 93.8598 13.8595 92.5041 14.8596 91.5041C15.8596 90.5041 17.2153 89.9414 18.6295 89.9395V89.9395Z" fill="#3F3D56"/>
<path d="M40.9166 101.25H35.3687V137.098H40.9166V101.25Z" fill="#3F3D56"/>
<path d="M56.7069 137.545C56.7069 138.216 48.2998 137.804 37.9291 137.804C27.5584 137.804 19.1514 138.216 19.1514 137.545C19.1514 136.873 27.5584 131.551 37.9291 131.551C48.2998 131.551 56.7069 136.873 56.7069 137.545Z" fill="#3F3D56"/>
<path d="M51.6983 132.701L56.93 132.701L59.4192 119.131L51.6973 119.131L51.6983 132.701Z" fill="#9F616A"/>
<path d="M50.3641 137.773L67.2344 137.772V137.559C67.2344 136.696 67.0646 135.842 66.7346 135.046C66.4046 134.249 65.921 133.525 65.3113 132.915C64.7015 132.306 63.9777 131.822 63.181 131.492C62.3844 131.162 61.5305 130.992 60.6682 130.992H60.6675L50.3638 130.993L50.3641 137.773Z" fill="#2F2E41"/>
<path d="M59.5237 124.289L69.9543 100.899C70.8252 98.9277 70.9215 96.7006 70.224 94.6614C69.5266 92.6222 68.0866 90.9205 66.1908 89.8953L43.5664 77.7633L33.2424 76.8852L23.7193 76.0195L23.6506 76.1358C23.5628 76.2842 21.5152 79.8208 22.8993 83.6988C23.9491 86.6404 26.68 88.938 31.0159 90.5279C41.1364 94.2388 52.8276 97.4104 57.3843 98.6015C57.5857 98.653 57.7739 98.7466 57.9365 98.876C58.0991 99.0055 58.2325 99.1679 58.3279 99.3526C58.4236 99.5351 58.4804 99.7354 58.4948 99.941C58.5092 100.147 58.4809 100.353 58.4117 100.547L48.7213 122.318C48.6201 122.595 48.5837 122.89 48.6148 123.183C48.6459 123.475 48.7438 123.756 48.9009 124.005C49.058 124.254 49.2701 124.463 49.5208 124.617C49.7715 124.77 50.0542 124.864 50.347 124.891L57.5878 125.419C57.6493 125.425 57.7104 125.427 57.7714 125.427C58.1422 125.427 58.5051 125.32 58.816 125.118C59.127 124.916 59.3728 124.628 59.5237 124.289V124.289Z" fill="#CBCBCB"/>
<path d="M48.284 132.701L53.5157 132.701L56.0051 119.131L48.2832 119.131L48.284 132.701Z" fill="#9F616A"/>
<path d="M46.9505 137.773L63.8208 137.772V137.559C63.8208 136.696 63.651 135.842 63.321 135.046C62.9911 134.249 62.5074 133.525 61.8977 132.915C61.288 132.306 60.5641 131.822 59.7674 131.492C58.9708 131.162 58.1169 130.992 57.2547 130.992H57.254L46.9502 130.993L46.9505 137.773Z" fill="#2F2E41"/>
<path d="M55.6834 125.568L66.1139 102.177C66.9848 100.206 67.0811 97.9789 66.3836 95.9396C65.6862 93.9004 64.2462 92.1987 62.3505 91.1735L39.7261 79.0415L29.4021 78.1634L21.943 77.5164L21.9441 77.4141C21.8562 77.5624 19.8087 81.0991 21.1927 84.9771C22.2426 87.9186 22.8396 90.2162 27.1755 91.8062C37.296 95.5171 48.9872 98.6887 53.5439 99.8798C53.7453 99.9313 53.9335 100.025 54.0961 100.154C54.2588 100.284 54.3922 100.446 54.4876 100.631C54.5832 100.813 54.64 101.014 54.6544 101.219C54.6688 101.425 54.6406 101.631 54.5713 101.825L44.8809 123.597C44.7797 123.873 44.7433 124.168 44.7744 124.461C44.8056 124.753 44.9035 125.035 45.0605 125.283C45.2176 125.532 45.4297 125.741 45.6804 125.895C45.9311 126.048 46.2138 126.143 46.5066 126.17L53.7474 126.697C53.8089 126.703 53.8701 126.706 53.931 126.706C54.3018 126.706 54.6647 126.598 54.9757 126.396C55.2867 126.194 55.5325 125.906 55.6834 125.568Z" fill="#CBCBCB"/>
<path d="M36.0261 77.9431C36.5262 77.5893 43.7079 81.3572 44.9882 78.3698C39.0134 63.433 43.1307 56.983 39.4708 48.4174C38.8262 46.9401 37.8551 45.628 36.6306 44.5799C35.406 43.5318 33.9598 42.7749 32.4006 42.366L22.9053 41.8867L22.8561 41.9105C20.7134 42.96 18.966 44.672 17.8729 46.7928C16.7798 48.9136 16.3993 51.3302 16.7878 53.6843C16.8215 63.0062 22.3991 70.116 20.4488 76.8774C20.367 77.1601 20.3432 77.4564 20.3787 77.7485C20.4142 78.0406 20.5083 78.3225 20.6553 78.5774C20.7979 78.8238 20.9895 79.0383 21.2182 79.2078C21.4469 79.3772 21.7078 79.4981 21.985 79.5629L34.5228 77.8904C34.8157 77.96 35.1201 77.9665 35.4156 77.9093C35.7112 77.8521 35.9912 77.7326 36.2369 77.5586L36.0261 77.9431Z" fill="#2F2E41"/>
<path d="M26.0741 38.3387C31.8631 38.3387 36.556 33.6458 36.556 27.8568C36.556 22.0679 31.8631 17.375 26.0741 17.375C20.2852 17.375 15.5923 22.0679 15.5923 27.8568C15.5923 33.6458 20.2852 38.3387 26.0741 38.3387Z" fill="#9F616A"/>
<path d="M22.7352 37.4794C23.2921 37.7231 24.4326 33.2854 23.9217 32.3979C23.162 31.0779 23.2069 31.0874 22.7025 30.2141C22.1982 29.3408 22.0853 28.1455 22.7385 27.3771C23.3916 26.6087 24.903 26.7107 25.2011 27.6741C25.0093 25.8442 26.8193 24.3732 28.6122 23.9599C30.4051 23.5465 32.2963 23.8032 34.099 23.4353C36.1912 23.0084 38.368 21.2546 37.5333 18.954C37.39 18.5709 37.1756 18.2184 36.9012 17.9152C35.9368 16.8308 34.5877 16.3677 33.2686 15.92C30.5244 14.9886 27.7052 14.0455 24.8091 14.1483C20.0507 14.3173 15.5527 17.6067 13.9495 22.0901C13.7499 22.6496 13.5953 23.224 13.4871 23.808C12.4931 29.153 15.5969 34.4251 20.6382 36.4605L22.7352 37.4794Z" fill="#2F2E41"/>
<path d="M77.7043 54.3332L78.9063 61.4703C78.9197 61.5499 78.9109 61.6316 78.8809 61.7066L69.4508 85.2693C69.4135 85.3626 69.3453 85.4403 69.2576 85.4894C69.1699 85.5385 69.068 85.5561 68.9689 85.5392C68.8698 85.5222 68.7796 85.4718 68.7131 85.3964C68.6467 85.3209 68.6082 85.225 68.604 85.1246L68.2045 75.6558C68.2018 75.5929 68.2127 75.5302 68.2364 75.4719L76.864 54.2407C76.9 54.1522 76.9639 54.0777 77.0461 54.0288C77.1282 53.9798 77.224 53.959 77.3191 53.9694C77.4141 53.9799 77.5032 54.0211 77.5727 54.0867C77.6422 54.1523 77.6884 54.2389 77.7043 54.3332V54.3332Z" fill="#3F3D56"/>
<path d="M77.0364 54.8848L78.1786 61.0164L69.8101 82.518L68.7236 75.6013L77.0364 54.8848Z" fill="#2ECC82"/>
<path d="M40.4231 85.1635C40.629 85.9673 67.6619 86.8373 67.9422 86.5942C68.1937 86.2827 68.4116 85.9455 68.5924 85.5882C68.8757 85.0823 69.138 84.5748 69.138 84.5748L68.6937 76.0255L42.0644 73.1797C42.0644 73.1797 40.8863 80.3142 40.5164 83.5919C40.4329 84.1113 40.4016 84.6378 40.4231 85.1635Z" fill="#3F3D56"/>
<path opacity="0.1" d="M65.2093 76.9272L65.2116 84.2928L53.4336 83.4554L53.9548 76.127L65.2093 76.9272Z" fill="black"/>
<path opacity="0.1" d="M49.8618 78.2065L49.9331 78.1976L49.3769 81.3288L42.8335 80.8636L43.0569 77.7227L49.8618 78.2065Z" fill="black"/>
<path opacity="0.1" d="M40.4231 85.1615C40.629 85.9653 67.6619 86.8353 67.9422 86.5922C68.1937 86.2807 68.4116 85.9435 68.5924 85.5862L40.5164 83.5898C40.4329 84.1093 40.4016 84.6358 40.4231 85.1615Z" fill="black"/>
<path d="M29.568 72.3958L52.3713 76.6514C52.4284 76.7942 52.4928 76.934 52.5642 77.0702C52.874 77.6531 53.303 78.1643 53.8234 78.5706C54.3437 78.9769 54.9437 79.2691 55.5844 79.4284C56.2276 79.5902 56.8979 79.6127 57.5506 79.4944C58.2032 79.3762 58.823 79.1199 59.3686 78.7428C60.3569 78.0643 61.0482 77.0335 61.3008 75.8617C61.5535 74.6899 61.3483 73.4658 60.7274 72.4404C60.1065 71.415 59.1169 70.6659 57.9615 70.3467C56.806 70.0275 55.5722 70.1624 54.513 70.7236C54.3285 70.8226 54.1511 70.9343 53.9821 71.0579L34.1757 64.2919L33.1619 59.1855L24.9463 59.7291L25.7976 68.2891C25.9009 69.2881 26.3235 70.2271 27.0027 70.9669C27.6819 71.7067 28.5815 72.2078 29.568 72.3958V72.3958Z" fill="#9F616A"/>
<path d="M24.6683 63.5457L36.6062 59.6221L33.8215 51.6264C33.4517 50.5646 32.7185 49.6678 31.7515 49.0944C30.7845 48.5209 29.6459 48.3078 28.5369 48.4926V48.4926C27.4151 48.6796 26.3971 49.2615 25.6667 50.1333C24.9364 51.0052 24.5419 52.1094 24.5545 53.2467L24.6683 63.5457Z" fill="#2F2E41"/>
<path d="M100.398 138.192H0.262821C0.193116 138.192 0.126267 138.164 0.0769782 138.115C0.0276898 138.065 0 137.999 0 137.929C0 137.859 0.0276898 137.792 0.0769782 137.743C0.126267 137.694 0.193116 137.666 0.262821 137.666H100.398C100.467 137.666 100.534 137.694 100.583 137.743C100.633 137.792 100.66 137.859 100.66 137.929C100.66 137.999 100.633 138.065 100.583 138.115C100.534 138.164 100.467 138.192 100.398 138.192Z" fill="#CBCBCB"/>
<path d="M119.375 129.963C124.178 132.449 126.313 137.861 126.313 137.861C126.313 137.861 120.662 139.243 115.859 136.757C111.056 134.272 108.921 128.86 108.921 128.86C108.921 128.86 114.572 127.478 119.375 129.963Z" fill="#2ECC82"/>
<path d="M117.839 131.752C120.705 136.338 126.272 138.029 126.272 138.029C126.272 138.029 127.192 132.284 124.326 127.698C121.46 123.112 115.893 121.422 115.893 121.422C115.893 121.422 114.973 127.167 117.839 131.752Z" fill="#2ECC82"/>
<path d="M135.09 138.139H105.128C105.058 138.139 104.991 138.111 104.942 138.062C104.893 138.013 104.865 137.946 104.865 137.876C104.865 137.806 104.893 137.74 104.942 137.69C104.991 137.641 105.058 137.613 105.128 137.613H135.09C135.159 137.613 135.226 137.641 135.275 137.69C135.325 137.74 135.352 137.806 135.352 137.876C135.352 137.946 135.325 138.013 135.275 138.062C135.226 138.111 135.159 138.139 135.09 138.139Z" fill="#CBCBCB"/>
</svg>

<svg width="178" height="139" fill="none" xmlns="http://www.w3.org/2000/svg"><path d="M177.141 2.627H80.423v45.73h96.718V2.628Z" fill="#E6E6E6"/><path d="M174.25 6.57H83.314v38.372h90.936V6.57Z" fill="#fff"/><path d="M177.141 0H80.423v4.205h96.718V0Z" fill="#2ECC82"/><path d="M83.576 3.153a.788.788 0 1 0 0-1.577.788.788 0 0 0 0 1.577Zm2.892 0a.788.788 0 1 0 0-1.577.788.788 0 0 0 0 1.577Zm2.891 0a.788.788 0 1 0 0-1.577.788.788 0 0 0 0 1.577Z" fill="#fff"/><path d="M152.962 12.879h-15.244v25.756h15.244V12.88Z" fill="#F2F2F2"/><path d="M135.352 12.879h-30.487v7.096h30.487V12.88Z" fill="#2ECC82"/><path d="M135.352 21.814h-30.487v7.622h30.487v-7.622Zm0 9.727h-30.487v7.096h30.487v-7.096Z" fill="#F2F2F2"/><path d="M58.137 74.142a4.697 4.697 0 0 0-5.201-4.694 4.533 4.533 0 0 0-.617.113l-15.891-13.62.95-5.12-7.833-2.538-2.362 8.203a4.758 4.758 0 0 0 2.019 5.31L48.75 74.16c0 .154.008.308.024.46a4.694 4.694 0 0 0 5.7 4.075c.188-.041.373-.095.554-.16a4.71 4.71 0 0 0 3.108-4.393Z" fill="#9F616A"/><path d="M18.63 89.94h20.488c0 .588 21.117 1.066 21.117 1.066.331.25.633.536.9.854a5.296 5.296 0 0 1 1.238 3.414v.854a5.336 5.336 0 0 1-5.334 5.334h-38.41a5.336 5.336 0 0 1-5.334-5.334v-.854a5.342 5.342 0 0 1 5.335-5.335Z" fill="#3F3D56"/><path d="M40.917 101.25h-5.548v35.848h5.548V101.25Z" fill="#3F3D56"/><path d="M56.707 137.545c0 .671-8.407.259-18.778.259-10.37 0-18.778.412-18.778-.259 0-.672 8.407-5.994 18.778-5.994 10.37 0 18.778 5.322 18.778 5.994Z" fill="#3F3D56"/><path d="M51.698 132.701h5.232l2.49-13.57h-7.723l.001 13.57Z" fill="#9F616A"/><path d="m50.364 137.773 16.87-.001v-.213a6.562 6.562 0 0 0-4.053-6.067c-.797-.33-1.65-.5-2.513-.5l-10.304.001v6.78Z" fill="#2F2E41"/><path d="m59.524 124.289 10.43-23.39a8.571 8.571 0 0 0-3.763-11.004L43.566 77.763l-10.324-.878-9.523-.866-.068.117c-.088.148-2.136 3.685-.752 7.563 1.05 2.941 3.781 5.239 8.117 6.829 10.12 3.71 21.812 6.882 26.368 8.073a1.473 1.473 0 0 1 .944.752 1.491 1.491 0 0 1 .084 1.194l-9.69 21.771a1.925 1.925 0 0 0 .799 2.299c.25.153.533.247.826.274l7.24.528a1.917 1.917 0 0 0 1.936-1.13Z" fill="#CBCBCB"/><path d="M48.284 132.701h5.232l2.49-13.57h-7.723l.001 13.57Z" fill="#9F616A"/><path d="m46.95 137.773 16.87-.001v-.213a6.562 6.562 0 0 0-4.053-6.067 6.56 6.56 0 0 0-2.512-.5h-.001l-10.304.001v6.78Z" fill="#2F2E41"/><path d="m55.683 125.568 10.43-23.391a8.57 8.57 0 0 0-3.763-11.004L39.727 79.041l-10.324-.878-7.459-.647.001-.102c-.088.148-2.135 3.685-.751 7.563 1.05 2.942 1.647 5.24 5.982 6.83 10.121 3.71 21.812 6.882 26.369 8.073a1.478 1.478 0 0 1 1.11 1.339 1.49 1.49 0 0 1-.083.606l-9.69 21.772a1.919 1.919 0 0 0 1.626 2.573l7.24.527a1.918 1.918 0 0 0 1.936-1.129Z" fill="#CBCBCB"/><path d="M36.026 77.943c.5-.354 7.682 3.414 8.962.427-5.975-14.937-1.857-21.387-5.517-29.953a10.666 10.666 0 0 0-7.07-6.051l-9.496-.48-.049.024a11.098 11.098 0 0 0-6.068 11.774c.034 9.322 5.611 16.432 3.66 23.193a2.185 2.185 0 0 0 .207 1.7 2.084 2.084 0 0 0 1.33.986l12.538-1.673a2.12 2.12 0 0 0 1.714-.331l-.21.384Z" fill="#2F2E41"/><path d="M26.074 38.339c5.79 0 10.482-4.693 10.482-10.482 0-5.79-4.693-10.482-10.482-10.482s-10.482 4.693-10.482 10.482 4.693 10.482 10.482 10.482Z" fill="#9F616A"/><path d="M22.735 37.48c.557.243 1.698-4.195 1.187-5.082-.76-1.32-.715-1.31-1.22-2.184-.504-.873-.617-2.069.036-2.837.654-.768 2.165-.666 2.463.297-.192-1.83 1.618-3.3 3.411-3.714 1.793-.413 3.684-.157 5.487-.525 2.092-.427 4.269-2.18 3.434-4.481a3.24 3.24 0 0 0-.632-1.039c-.964-1.084-2.313-1.547-3.632-1.995-2.745-.931-5.564-1.874-8.46-1.772-4.758.17-9.256 3.459-10.86 7.942-.2.56-.354 1.134-.462 1.718-.994 5.345 2.11 10.617 7.151 12.653l2.097 1.018Z" fill="#2F2E41"/><path d="m77.704 54.333 1.202 7.137a.44.44 0 0 1-.025.237l-9.43 23.562a.44.44 0 0 1-.847-.144l-.4-9.47a.438.438 0 0 1 .032-.183l8.628-21.231a.439.439 0 0 1 .84.092Z" fill="#3F3D56"/><path d="m77.036 54.885 1.143 6.131-8.369 21.502-1.086-6.917 8.312-20.716Z" fill="#2ECC82"/><path d="M40.423 85.163c.206.804 27.239 1.674 27.52 1.431.25-.311.469-.648.65-1.006.283-.506.545-1.013.545-1.013l-.444-8.55-26.63-2.845s-1.178 7.134-1.548 10.412a7.874 7.874 0 0 0-.093 1.572Z" fill="#3F3D56"/><path opacity=".1" d="m65.21 76.927.002 7.366-11.778-.838.52-7.328 11.255.8Zm-15.348 1.28.071-.01-.556 3.132-6.544-.465.224-3.141 6.805.484Zm-9.439 6.955c.206.803 27.239 1.673 27.52 1.43.25-.311.469-.648.65-1.006L40.515 83.59a7.876 7.876 0 0 0-.093 1.572Z" fill="#000"/><path d="m29.568 72.396 22.803 4.255c.057.143.122.283.193.42a4.705 4.705 0 0 0 4.987 2.423 4.657 4.657 0 0 0 1.818-.751 4.695 4.695 0 0 0-4.856-8.02 4.55 4.55 0 0 0-.53.335l-19.807-6.766-1.014-5.107-8.216.544.852 8.56a4.67 4.67 0 0 0 3.77 4.107Z" fill="#9F616A"/><path d="m24.668 63.546 11.938-3.924-2.785-7.996a4.766 4.766 0 0 0-5.284-3.133 4.767 4.767 0 0 0-3.982 4.754l.113 10.299Z" fill="#2F2E41"/><path d="M100.398 138.192H.263a.264.264 0 0 1-.263-.263.262.262 0 0 1 .263-.263h100.135a.263.263 0 0 1 0 .526Z" fill="#CBCBCB"/><path d="M119.375 129.963c4.803 2.486 6.938 7.898 6.938 7.898s-5.651 1.382-10.454-1.104c-4.803-2.485-6.938-7.897-6.938-7.897s5.651-1.382 10.454 1.103Z" fill="#2ECC82"/><path d="M117.839 131.752c2.866 4.586 8.433 6.277 8.433 6.277s.92-5.745-1.946-10.331c-2.866-4.586-8.433-6.276-8.433-6.276s-.92 5.745 1.946 10.33Z" fill="#2ECC82"/><path d="M135.09 138.139h-29.962a.263.263 0 0 1 0-.526h29.962a.263.263 0 0 1 0 .526Z" fill="#CBCBCB"/></svg>
